src/assets/svg/investment-9.svg

<svg width="38" height="38" viewBox="0 0 38 38" fill="none" xmlns="http://www.w3.org/2000/svg">
<path d="M33.0917 34.2665L34.2443 33.1213L30.3683 29.2682V23.5547H28.7428V29.9436L33.0917 34.2665ZM3.40944 33.5596C2.46648 33.5596 1.66215 33.2296 0.996445 32.5696C0.332148 31.9096 0 31.1105 0 30.1722V3.38743C0 2.45055 0.332148 1.65141 0.996445 0.99001C1.66074 0.330003 2.46578 0 3.41156 0H30.3683C31.3113 0 32.1156 0.330003 32.7813 0.99001C33.4456 1.65002 33.7778 2.44985 33.7778 3.38952V15.8695C33.4076 15.7423 33.053 15.6388 32.7138 15.5591C32.376 15.4808 32.027 15.4025 31.6667 15.3242V3.38952C31.6667 3.06651 31.5316 2.77007 31.2613 2.50019C30.9911 2.23032 30.6927 2.09608 30.3662 2.09748H3.41156C3.08644 2.09748 2.78807 2.23172 2.51644 2.50019C2.24481 2.76867 2.1097 3.06511 2.11111 3.38952V30.1722C2.11111 30.4938 2.24622 30.7896 2.51644 31.0594C2.78667 31.3293 3.08433 31.4636 3.40944 31.4622H15.371C15.4217 31.8537 15.4871 32.218 15.5673 32.5549C15.6476 32.8905 15.751 33.2254 15.8777 33.5596H3.40944ZM2.11111 29.3647V31.4622V2.09748V15.3242V15.1669V29.3647ZM7.38889 25.736H15.7489C15.8263 25.3767 15.9318 25.0292 16.0656 24.6936L16.4878 23.6365H7.38889V25.736ZM7.38889 17.8286H21.28C21.9738 17.3447 22.6571 16.935 23.3299 16.5994C24.0026 16.2624 24.7246 15.9982 25.4959 15.8066V15.7311H7.38889V17.8286ZM7.38889 9.92107H26.3889V7.82359H7.38889V9.92107ZM29.5555 38C27.2038 38 25.2088 37.1855 23.5706 35.5564C21.9309 33.9274 21.1111 31.9446 21.1111 29.608C21.1111 27.2714 21.9309 25.2886 23.5706 23.6595C25.2102 22.0305 27.2052 21.2167 29.5555 21.2181C31.9059 21.2195 33.9016 22.0333 35.5427 23.6595C37.1837 25.2858 38.0028 27.2686 38 29.608C38 31.9432 37.1809 33.9253 35.5427 35.5543C33.9016 37.1834 31.9059 37.9979 29.5555 37.9979" fill="#00C700"/>
</svg>

<svg xmlns="http://www.w3.org/2000/svg" width="38" height="38" fill="none"><path fill="#00C700" d="m33.092 34.267 1.152-1.146-3.876-3.853v-5.713h-1.625v6.389zM3.409 33.56q-1.414 0-2.413-.99A3.26 3.26 0 0 1 0 30.172V3.387Q0 1.982.996.99 1.993 0 3.412 0h26.956q1.415 0 2.413.99t.997 2.4v12.48a11 11 0 0 0-1.064-.31 78 78 0 0 0-1.047-.236V3.39q0-.485-.406-.89-.405-.405-.895-.403H3.412q-.489 0-.896.403-.406.403-.405.89v26.782q0 .483.405.887.405.406.893.403h11.962q.075.588.196 1.093.12.503.31 1.005zm-1.298-4.195v2.097V2.097v13.227-.157zm5.278-3.629h8.36q.116-.54.317-1.042l.422-1.057h-9.1zm0-7.907H21.28a16.4 16.4 0 0 1 2.05-1.23 10.4 10.4 0 0 1 2.166-.792v-.076H7.389zm0-7.908h19V7.824h-19zM29.556 38q-3.528 0-5.985-2.444-2.46-2.443-2.46-5.948t2.46-5.948q2.46-2.444 5.984-2.442 3.526.002 5.988 2.442 2.46 2.44 2.457 5.948 0 3.503-2.457 5.946-2.461 2.445-5.988 2.444"/></svg>
